X:89
T: Jungfer Doertchen
N: Q0057b
O: Mitteleuropa, Deutschland (DDR) , Sachsen, Altmark
N: Dritte und vierte Zeile = Refrain auf sinnfreie Silben.
R: Ballade, Todesahnung, Tod, Selbstmord
M: 4/4
L: 1/16
K: G
D4 | G4G4B4A2G2 | G2F2F4F4
D4 | A4A2A2d4c2A2 | c2B2B4B4
G2F2 | E3EE2E2E4
A2G2 | F3EF2G2A4
c4 | B4c2c2d4A4 | c2B2B4B4

@@@ Tune index: 965
